src/lib/packages/icons/src/assets/filled/football-shirt.svg

<svg xmlns="http://www.w3.org/2000/svg" width="24" height="24" fill="none"><path fill="currentColor" d="M7 16.75h10v2.95c0 .17-.13.3-.3.3H7.3c-.17 0-.3-.13-.3-.3v-2.95ZM21 8l-2.5 2.5L17 9v3.25H7V9l-1.5 1.5L3 8l3.41-3.41c.38-.38.88-.59 1.41-.59h1.19c.25 0 .48.16.52.41A2.497 2.497 0 0 0 12 6.5c1.24 0 2.27-.91 2.47-2.09.04-.24.27-.41.52-.41h1.19c.53 0 1.04.21 1.41.59L21 8Zm-5.48 2c0-.55-.45-1-1-1h-.01c-.55 0-.99.45-.99 1s.45 1 1 1 1-.45 1-1ZM7 15.25h10v-1.5H7v1.5Z"/></svg>

<svg width="24" height="24" viewBox="0 0 24 24" fill="none" xmlns="http://www.w3.org/2000/svg">
<path d="M7 16.75H17V19.7C17 19.87 16.87 20 16.7 20H7.29999C7.12999 20 7 19.87 7 19.7V16.75ZM21 8L18.5 10.5L17 9V12.25H7V9L5.5 10.5L3 8L6.40997 4.59C6.78997 4.21 7.29001 4 7.82001 4H9.01001C9.26001 4 9.49003 4.16 9.53003 4.41C9.72003 5.6 10.76 6.5 12 6.5C13.24 6.5 14.27 5.59 14.47 4.41C14.51 4.17 14.74 4 14.99 4H16.18C16.71 4 17.22 4.21 17.59 4.59L21 8ZM15.52 10C15.52 9.45 15.07 9 14.52 9H14.51C13.96 9 13.52 9.45 13.52 10C13.52 10.55 13.97 11 14.52 11C15.07 11 15.52 10.55 15.52 10ZM7 15.25H17V13.75H7V15.25Z" fill="currentColor"/>
</svg>
